static/assets/images/icons/janestreet.svg

<svg width="257" height="256" viewBox="0 0 257 256" fill="none" xmlns="http://www.w3.org/2000/svg">
<path d="M172.83 146.124L183.535 151.85C184.171 152.184 185.019 151.998 185.273 151.316C188.311 144.073 189.9 136.307 189.953 128.454C190.239 94.5906 162.873 66.8286 128.967 66.5375H128.447C94.8276 66.5375 67.2546 93.8444 66.9631 127.417C66.6981 161.281 94.0433 189.064 127.949 189.334L128.469 189.35C144.531 189.35 159.189 183.105 170.18 172.939C170.721 172.463 170.822 171.637 170.324 171.097L161.198 162.874C160.657 162.397 159.852 162.503 159.375 162.953L159.354 162.932C150.847 170.492 139.857 174.671 128.469 174.675H128.076C102.263 174.447 81.4571 153.321 81.6638 127.544C81.8704 101.994 102.862 81.1964 128.447 81.1964H128.861C154.653 81.424 175.48 102.571 175.252 128.327C175.208 133.809 174.193 139.239 172.253 144.367C172.109 144.679 172.089 145.033 172.196 145.359C172.303 145.685 172.53 145.958 172.83 146.124Z" fill="black"/>
<path d="M190.387 40.7019C189.804 40.305 189.02 40.4109 188.628 41.0089L181.749 50.9314C181.352 51.5135 181.415 52.3179 181.998 52.7307C205.528 69.4958 220.933 96.9456 220.912 127.957C220.912 178.85 179.449 220.234 128.484 220.234C77.5196 220.234 36.0514 178.829 36.0514 127.914C36.0514 77.0423 77.5196 35.6375 128.506 35.6533C139.279 35.6446 149.97 37.5273 160.09 41.2153C160.407 41.3282 160.755 41.3141 161.061 41.1759C161.368 41.0377 161.609 40.7862 161.733 40.4744L166.058 29.1442C166.17 28.8362 166.16 28.4967 166.029 28.1962C165.898 27.8956 165.655 27.6571 165.353 27.5301C153.557 23.1852 141.083 20.9669 128.511 20.9786C69.4273 20.9574 21.3825 68.9402 21.3613 127.93C21.3613 186.91 69.4273 234.914 128.49 234.914C187.547 234.914 235.618 186.931 235.618 127.957C235.618 91.9711 217.732 60.0919 190.387 40.7019Z" fill="black"/>
<path d="M55.7018 170.393C70.3812 195.409 97.6204 212.216 128.696 212.132C175.173 211.989 212.889 174.135 212.762 127.708C212.64 81.2811 174.712 43.6178 128.219 43.7395C81.7433 43.8612 44.0271 81.7521 44.1543 128.163C44.1804 133.704 44.7484 139.228 45.8501 144.658C46.0144 145.341 46.7192 145.717 47.3869 145.547L59.1199 142.637C59.2851 142.601 59.4415 142.532 59.5801 142.435C59.7187 142.338 59.8367 142.215 59.9273 142.072C60.018 141.93 60.0794 141.77 60.1082 141.604C60.137 141.437 60.1325 141.267 60.095 141.102H60.1109C59.2806 136.825 58.8583 132.478 58.8496 128.121C58.7436 89.796 89.8832 58.5201 128.262 58.4143C166.662 58.3084 197.981 89.4256 198.066 127.75C198.188 166.075 167.033 197.351 128.654 197.457C103.233 197.515 80.9165 183.893 68.7278 163.551C68.5644 163.252 68.2935 163.026 67.9699 162.919C67.6463 162.812 67.294 162.832 66.9843 162.974L56.2423 168.637C55.9377 168.798 55.7098 169.074 55.6085 169.403C55.5072 169.733 55.5407 170.089 55.7018 170.393Z" fill="black"/>
</svg>

<svg xmlns="http://www.w3.org/2000/svg" fill="none" viewBox="0 0 257 256"><path fill="#000" d="m172.83 146.124 10.705 5.726c.636.334 1.484.148 1.738-.534a60.2 60.2 0 0 0 4.68-22.862c.286-33.863-27.08-61.625-60.986-61.917h-.52c-33.62 0-61.192 27.307-61.484 60.88-.265 33.864 27.08 61.647 60.986 61.917l.52.016c16.062 0 30.72-6.245 41.711-16.411.541-.476.642-1.302.144-1.842l-9.126-8.223c-.541-.477-1.346-.371-1.823.079l-.021-.021a46.52 46.52 0 0 1-30.885 11.743h-.393c-25.813-.228-46.619-21.354-46.412-47.131.206-25.55 21.198-46.348 46.783-46.348h.414c25.792.228 46.619 21.375 46.391 47.131a46.4 46.4 0 0 1-2.999 16.04 1.356 1.356 0 0 0 .577 1.757"/><path fill="#000" d="M190.387 40.702c-.583-.397-1.367-.291-1.759.307l-6.879 9.922c-.397.583-.334 1.387.249 1.8 23.53 16.765 38.935 44.215 38.914 75.226 0 50.893-41.463 92.277-92.428 92.277s-92.433-41.405-92.433-92.32c0-50.872 41.469-92.276 92.455-92.26a92 92 0 0 1 31.584 5.561 1.3 1.3 0 0 0 1.643-.74l4.325-11.33a1.28 1.28 0 0 0-.705-1.615 106.3 106.3 0 0 0-36.842-6.551C69.427 20.957 21.383 68.94 21.361 127.93c0 58.98 48.066 106.984 107.129 106.984 59.057 0 107.128-47.983 107.128-106.957 0-35.986-17.886-67.865-45.231-87.255"/><path fill="#000" d="M55.702 170.393c14.68 25.016 41.918 41.823 72.994 41.739 46.477-.143 84.193-37.997 84.066-84.424-.122-46.427-38.05-84.09-84.543-83.968-46.476.121-84.192 38.012-84.065 84.423a85 85 0 0 0 1.696 16.495c.164.683.87 1.059 1.537.889l11.733-2.91a1.28 1.28 0 0 0 .988-1.033 1.3 1.3 0 0 0-.013-.502h.016a69 69 0 0 1-1.261-12.981c-.106-38.325 31.033-69.6 69.412-69.707 38.4-.106 69.719 31.012 69.804 69.336.122 38.325-31.033 69.601-69.412 69.707-25.421.058-47.737-13.564-59.926-33.906a1.345 1.345 0 0 0-1.744-.577l-10.742 5.663a1.3 1.3 0 0 0-.54 1.756"/></svg>
